16x16/apps/gcolor3.svg

<svg height="16" width="16" xmlns="http://www.w3.org/2000/svg"><path d="m14.928 4a8 8 0 0 1 0 8l-6.928-4z" fill="#3584e4"/><path d="m14.928 12a8 8 0 0 1 -6.928 4v-8z" fill="#a347ba"/><path d="m8 0a8 8 0 0 1 6.928 4l-6.928 4z" fill="#33d17a"/><path d="m1.072 4a8 8 0 0 1 6.928-4v8z" fill="#f6d32d"/><path d="m1.072 12a8 8 0 0 1 0-8l6.928 4z" fill="#ff7800"/><path d="m8 16a8 8 0 0 1 -6.928-4l6.928-4z" fill="#ed333b"/><path d="m12.039 3.405-4.86 4.86c-.39.584-.195 1.167-.779 1.751l.584.584c.584-.584 1.373-.383 1.751-.778l4.86-4.86z" fill="#f4f4f7"/><path d="m14.817 1a1.183 1.183 0 0 0 -.841.352h-.001l-1.217 1.217-.76-.76c-.178-.178-.356 0-.356 0l-.563.562s-.178.178 0 .355l3.195 3.195c.177.178.355 0 .355 0l.563-.563c.177-.178 0-.355 0-.355l-.76-.76 1.21-1.211.006-.007a1.183 1.183 0 0 0 .352-.842c0-.653-.53-1.183-1.183-1.183z" fill="#17191e"/></svg>

<svg height="16" width="16" xmlns="http://www.w3.org/2000/svg">
    <path d="M14.928 4a8 8 0 0 1 0 8L8 8z" fill="#3584e4"/>
    <path d="M14.928 12A8 8 0 0 1 8 16V8z" fill="#a347ba"/>
    <path d="M8 0a8 8 0 0 1 6.928 4L8 8z" fill="#33d17a"/>
    <path d="M1.072 4A8 8 0 0 1 8 0v8z" fill="#f6d32d"/>
    <path d="M1.072 12a8 8 0 0 1 0-8L8 8z" fill="#ff7800"/>
    <path d="M8 16a8 8 0 0 1-6.928-4L8 8z" fill="#ed333b"/>
    <path d="m12.039 3.405-4.86 4.86c-.39.584-.195 1.167-.779 1.751l.584.584c.584-.584 1.373-.383 1.751-.778l4.86-4.86z" fill="#f4f4f7"/>
    <path d="M14.817 1a1.183 1.183 0 0 0-.841.352h-.001l-1.217 1.217-.76-.76c-.178-.178-.356 0-.356 0l-.563.562s-.178.178 0 .355l3.195 3.195c.177.178.355 0 .355 0l.563-.563c.177-.178 0-.355 0-.355l-.76-.76 1.21-1.211.006-.007A1.183 1.183 0 0 0 16 2.183C16 1.53 15.47 1 14.817 1z" fill="#17191e"/>
</svg>
